X:1
T:Jesus Died for Me (Beers)
T:Jesus Died for Me (Beers)
T:William Batchelder Bradbury
T:Mrs. H. N. Beers, 1864
T:Public Domain Courtesy of the Cyber Hymnal™
C:William Batchelder Bradbury
Z:Public Domain
Z:Courtesy of the Cyber Hymnal™
%%score 1 ( 2 3 )
L:1/8
Q:1/4=105
M:4/4
K:A
V:1 treble 
V:2 bass 
V:3 bass 
V:1
 ([CA][DB]) | [Ec]2 [Ec]2 [Ec]2 [Ec]2 | [DB]2 [DA]2 [DF]4 | [CE]2 [CA]2 [B,G]2 [DB]2 | %4
w: 1.~Al- *|though I am a|sin- ful child,|Je- sus is my|
w: 2.~Though *|but a child, I’ll|do His will,|Je- sus is my|
w: 3.~A- *|round my feet is|many a snare,|Je- sus is my|
w: 4.~And *|since His ser- vice|I’ve be- gun,|Je- sus is my|
w: 5.~When *|all my du- ties|here are done,|Je- sus is my|
 [CA]4 [CA]2 ([CA][DB]) | [Ec]2 [Ec]2 [Ec]2 [Ec]2 | [DB]2 [DA]2 [DF]4 | [CE]2 [CA]2 [Ec]3 [DB] | %8
w: Sav- ior— With *|guilt my heart is|all de- filed,|Je- sus died for|
w: Sav- ior— I’ll *|hear His voice, and|fol- low still—|Je- sus died for|
w: Sav- ior— I’ll *|seek Him ev- ery|day in prayer,|Je- sus died for|
w: Sav- ior— I’ll *|tell His love to|ev- ery one,|Je- sus died for|
w: Sav- ior— He’ll *|take me near- er|to His throne,|Je- sus died for|
 [CA]6 ||"^Refrain" ([CA][DB]) | [Ec]2 [Ec]2 [Ec]2 [Ed]2 | [Ee]4 [Ed]2"^Girls" [Ec]2 | %12
w: me.||||
w: me.||||
w: me.|I *|sing the love of|Je- sus— He|
w: me.||||
w: me.||||
 [Ec]2 [Fd]2 [DB]2"^Boys" [DB]2 | [DB]2 [Ec]2 [CA]2 ([CA][DB]) | [Ec]2 [Ec]2 [Ec]2 [Ed]2 | %15
w: |||
w: |||
w: died for me, He|died for me— His *|pre- cious blood can|
w: |||
w: |||
 [Ee]4 [Ed]2 [Ec]2 | [DB]2 [DB]2 [Ec]3 [DB] | [CA]6 |] %18
w: |||
w: |||
w: cleanse me, Once|shed on Cal- va-|ry.|
w: |||
w: |||
V:2
 A,2 | A,2 A,2 A,2 A,2 | [D,F,]2 [D,F,]2 [D,A,]4 | [E,A,]2 [E,A,]2 [E,B,]2 [E,G,]2 | %4
 [A,,A,]4 [A,,A,]2 [A,,A,]2 | [A,,A,]2 [A,,A,]2 [A,,A,]2 [A,,A,]2 | [D,F,]2 [D,F,]2 [D,A,]4 | %7
 [E,A,]2 [E,A,]2 [E,G,]3 [E,G,] | [A,,A,]6 || A,2 | A,2 A,2 A,2 [A,B,]2 | [A,C]4 [A,B,]2 z2 | %12
 z6 [E,G,]2 | [E,G,]2 [E,G,]2 [A,,A,]2 A,2 | A,2 A,2 A,2 [A,B,]2 | [A,C]4 [A,B,]2 A,2 | %16
 [E,G,]2 [E,G,]2 [E,G,]3 [E,G,] | [A,,A,]6 |] %18
V:3
 A,2 | A,2 A,2 A,2 A,2 | x8 | x8 | x8 | x8 | x8 | x8 | x6 || A,2 | A,2 A,2 A,2 x2 | x8 | x8 | %13
 x6 A,2 | A,2 A,2 A,2 x2 | x6 A,2 | x8 | x6 |] %18

